svgs/light/arrow-up-small-big.svg

<svg xmlns="http://www.w3.org/2000/svg" viewBox="0 0 576 512"><!--! Font Awesome Pro 6.6.0 by @fontawesome - https://fontawesome.com License - https://fontawesome.com/license (Commercial License) Copyright 2024 Fonticons, Inc. --><path d="M148.7 36.7c6.2-6.2 16.4-6.2 22.6 0l96 96c6.2 6.2 6.2 16.4 0 22.6s-16.4 6.2-22.6 0L176 86.6 176 464c0 8.8-7.2 16-16 16s-16-7.2-16-16l0-377.4L75.3 155.3c-6.2 6.2-16.4 6.2-22.6 0s-6.2-16.4 0-22.6l96-96zM352 80l0 64c0 8.8 7.2 16 16 16l64 0c8.8 0 16-7.2 16-16l0-64c0-8.8-7.2-16-16-16l-64 0c-8.8 0-16 7.2-16 16zm-32 0c0-26.5 21.5-48 48-48l64 0c26.5 0 48 21.5 48 48l0 64c0 26.5-21.5 48-48 48l-64 0c-26.5 0-48-21.5-48-48l0-64zm32 352c0 8.8 7.2 16 16 16l128 0c8.8 0 16-7.2 16-16l0-128c0-8.8-7.2-16-16-16l-128 0c-8.8 0-16 7.2-16 16l0 128zm-32 0l0-128c0-26.5 21.5-48 48-48l128 0c26.5 0 48 21.5 48 48l0 128c0 26.5-21.5 48-48 48l-128 0c-26.5 0-48-21.5-48-48z"/></svg>

<svg xmlns="http://www.w3.org/2000/svg" viewBox="0 0 576 512"><!--! Font Awesome Pro 6.4.0 by @fontawesome - https://fontawesome.com License - https://fontawesome.com/license (Commercial License) Copyright 2023 Fonticons, Inc. --><path d="M148.7 36.7c6.2-6.2 16.4-6.2 22.6 0l96 96c6.2 6.2 6.2 16.4 0 22.6s-16.4 6.2-22.6 0L176 86.6V464c0 8.8-7.2 16-16 16s-16-7.2-16-16V86.6L75.3 155.3c-6.2 6.2-16.4 6.2-22.6 0s-6.2-16.4 0-22.6l96-96zM352 80v64c0 8.8 7.2 16 16 16h64c8.8 0 16-7.2 16-16V80c0-8.8-7.2-16-16-16H368c-8.8 0-16 7.2-16 16zm-32 0c0-26.5 21.5-48 48-48h64c26.5 0 48 21.5 48 48v64c0 26.5-21.5 48-48 48H368c-26.5 0-48-21.5-48-48V80zm32 352c0 8.8 7.2 16 16 16H496c8.8 0 16-7.2 16-16V304c0-8.8-7.2-16-16-16H368c-8.8 0-16 7.2-16 16V432zm-32 0V304c0-26.5 21.5-48 48-48H496c26.5 0 48 21.5 48 48V432c0 26.5-21.5 48-48 48H368c-26.5 0-48-21.5-48-48z"/></svg>
